assets/img/i-d-adecuamos.svg

<svg width="90" height="90" viewBox="0 0 90 90" fill="none" xmlns="http://www.w3.org/2000/svg">
<g clip-path="url(#clip0)">
<path d="M8.45346 86.7857C9.60729 86.7857 10.5427 85.8293 10.5427 84.6494C10.5427 83.4696 9.60729 82.5132 8.45346 82.5132C7.29962 82.5132 6.36426 83.4696 6.36426 84.6494C6.36426 85.8293 7.29962 86.7857 8.45346 86.7857Z" fill="#9D3BFF"/>
<path d="M4.37165 79.4769C6.2947 79.4769 7.85365 77.8829 7.85365 75.9165C7.85365 73.9501 6.2947 72.356 4.37165 72.356C2.44859 72.356 0.889648 73.9501 0.889648 75.9165C0.889648 77.8829 2.44859 79.4769 4.37165 79.4769Z" fill="#00C4D1"/>
<path d="M74.6113 22.8461C77.4638 22.8461 79.7762 20.4816 79.7762 17.5648C79.7762 14.648 77.4638 12.2835 74.6113 12.2835C71.7587 12.2835 69.4463 14.648 69.4463 17.5648C69.4463 20.4816 71.7587 22.8461 74.6113 22.8461Z" fill="#9D3BFF"/>
<path d="M64.3296 13.2429C65.7558 13.2429 66.912 12.0606 66.912 10.6022C66.912 9.14381 65.7558 7.96155 64.3296 7.96155C62.9033 7.96155 61.7471 9.14381 61.7471 10.6022C61.7471 12.0606 62.9033 13.2429 64.3296 13.2429Z" fill="#00C4D1"/>
<path d="M88.3076 90H23.3297C22.9706 89.9977 22.621 89.8819 22.3287 89.6685C22.0365 89.4551 21.816 89.1545 21.6974 88.8079C21.5787 88.4613 21.5678 88.0857 21.6661 87.7326C21.7644 87.3794 21.9671 87.0659 22.2464 86.8352L87.0502 33.4286C87.3046 33.2178 87.612 33.0846 87.9371 33.0444C88.2621 33.0042 88.5917 33.0585 88.8879 33.2011C89.1774 33.3517 89.4208 33.5809 89.5914 33.8635C89.762 34.1461 89.8532 34.4712 89.8552 34.8033L90.0776 88.2099C90.0772 88.6826 89.8968 89.1367 89.5747 89.4758C89.4087 89.6456 89.2109 89.7795 88.9932 89.8696C88.7756 89.9596 88.5424 90.004 88.3076 90ZM28.2625 86.4396H86.5569L86.3538 38.5714L28.2625 86.4396Z" fill="#00C4D1"/>
<path d="M79.2541 80.0308H52.7232C52.3674 80.033 52.0195 79.9237 51.7263 79.7176C51.4332 79.5114 51.2088 79.2184 51.0834 78.878C50.958 78.5375 50.9376 78.1659 51.025 77.8133C51.1124 77.4606 51.3034 77.1438 51.5722 76.9055L78.0161 53.4066C78.2685 53.1814 78.5788 53.0349 78.9101 52.9847C79.2415 52.9344 79.58 52.9824 79.8855 53.1229C80.191 53.2635 80.4506 53.4907 80.6336 53.7777C80.8166 54.0646 80.9152 54.3992 80.9177 54.7418L81.0048 78.2407C81.0043 78.7134 80.8239 79.1674 80.5018 79.5066C80.3381 79.674 80.1435 79.8065 79.9293 79.8965C79.7151 79.9865 79.4856 80.0321 79.2541 80.0308ZM57.3755 76.4703H77.5034L77.4357 58.6681L57.3755 76.4703Z" fill="#9D3BFF"/>
<path d="M24.9355 69.3495H17.9715C17.5105 69.3469 17.0692 69.1585 16.7432 68.8252C16.4173 68.4919 16.233 68.0406 16.2305 67.5692V35.5253C16.233 35.0539 16.4173 34.6026 16.7432 34.2693C17.0692 33.936 17.5105 33.7477 17.9715 33.7451H24.9355C25.3964 33.7477 25.8378 33.936 26.1637 34.2693C26.4897 34.6026 26.6739 35.0539 26.6765 35.5253V67.5692C26.6739 68.0406 26.4897 68.4919 26.1637 68.8252C25.8378 69.1585 25.3964 69.3469 24.9355 69.3495ZM19.7125 65.789H23.2138V37.3055H19.7318L19.7125 65.789Z" fill="#00C4D1"/>
<path d="M38.1663 37.3055H16.5779C16.117 37.3029 15.6756 37.1145 15.3496 36.7812C15.0237 36.4479 14.8395 35.9966 14.8369 35.5253V13.4505C14.8395 12.9792 15.0237 12.5279 15.3496 12.1946C15.6756 11.8613 16.117 11.6729 16.5779 11.6703H23.8998C24.7143 9.04707 26.2054 6.69686 28.216 4.86703C30.2267 3.0372 32.6825 1.79544 35.3252 1.27243C37.9678 0.749425 40.6994 0.964514 43.2326 1.89506C45.7657 2.82561 48.0067 4.43721 49.7197 6.56023C51.4326 8.68326 52.5542 11.2392 52.9664 13.959C53.3785 16.6789 53.066 19.462 52.0617 22.0156C51.0575 24.5691 49.3986 26.7986 47.2596 28.4695C45.1207 30.1403 42.5808 31.1906 39.9073 31.5099V35.5253C39.9048 35.9966 39.7205 36.4479 39.3946 36.7812C39.0686 37.1145 38.6273 37.3029 38.1663 37.3055ZM18.3189 33.745H36.4253V29.789C36.4278 29.3177 36.6121 28.8664 36.938 28.5331C37.264 28.1998 37.7053 28.0114 38.1663 28.0088C40.3385 28.0119 42.4671 27.3854 44.3052 26.2019C46.1433 25.0184 47.6157 23.3263 48.5517 21.322C49.4876 19.3176 49.8488 17.083 49.5933 14.8773C49.3378 12.6716 48.4761 10.5851 47.1081 8.85983C45.7401 7.13451 43.9219 5.84102 41.8642 5.12935C39.8065 4.41767 37.5937 4.31696 35.4824 4.83889C33.371 5.36081 31.4476 6.484 29.9351 8.07822C28.4226 9.67244 27.383 11.6724 26.9369 13.8461C26.8528 14.2439 26.6381 14.6003 26.3283 14.8558C26.0186 15.1114 25.6325 15.2507 25.2345 15.2505H18.3189V33.745Z" fill="#9D3BFF"/>
<path d="M30.5063 74.3341H17.9324C17.4714 74.3315 17.0301 74.1431 16.7041 73.8098C16.3782 73.4765 16.1939 73.0252 16.1914 72.5538V67.6088C16.1939 67.1374 16.3782 66.6861 16.7041 66.3528C17.0301 66.0195 17.4714 65.8311 17.9324 65.8286H30.5063C30.9672 65.8311 31.4086 66.0195 31.7346 66.3528C32.0605 66.6861 32.2447 67.1374 32.2473 67.6088V72.5538C32.2447 73.0252 32.0605 73.4765 31.7346 73.8098C31.4086 74.1431 30.9672 74.3315 30.5063 74.3341ZM19.7121 70.7736H28.7653V69.3494H19.7121V70.7736Z" fill="#9D3BFF"/>
<path d="M88.1429 51.5473H84.1482C83.6865 51.5473 83.2437 51.3597 82.9172 51.0258C82.5907 50.692 82.4072 50.2392 82.4072 49.767C82.4072 49.2949 82.5907 48.8421 82.9172 48.5082C83.2437 48.1744 83.6865 47.9868 84.1482 47.9868H88.1622C88.6239 47.9868 89.0668 48.1744 89.3933 48.5082C89.7198 48.8421 89.9032 49.2949 89.9032 49.767C89.9032 50.2392 89.7198 50.692 89.3933 51.0258C89.0668 51.3597 88.6239 51.5473 88.1622 51.5473H88.1429Z" fill="#00C4D1"/>
<path d="M88.1429 63.6528H84.1482C83.6865 63.6528 83.2437 63.4652 82.9172 63.1313C82.5907 62.7975 82.4072 62.3447 82.4072 61.8725C82.4072 61.4004 82.5907 60.9476 82.9172 60.6137C83.2437 60.2799 83.6865 60.0923 84.1482 60.0923H88.1622C88.6239 60.0923 89.0668 60.2799 89.3933 60.6137C89.7198 60.9476 89.9032 61.4004 89.9032 61.8725C89.9032 62.3447 89.7198 62.7975 89.3933 63.1313C89.0668 63.4652 88.6239 63.6528 88.1622 63.6528H88.1429Z" fill="#00C4D1"/>
<path d="M88.1429 75.7583H84.1482C83.6865 75.7583 83.2437 75.5707 82.9172 75.2368C82.5907 74.903 82.4072 74.4502 82.4072 73.978C82.4072 73.5059 82.5907 73.0531 82.9172 72.7192C83.2437 72.3854 83.6865 72.1978 84.1482 72.1978H88.1622C88.6239 72.1978 89.0668 72.3854 89.3933 72.7192C89.7198 73.0531 89.9032 73.5059 89.9032 73.978C89.9032 74.4502 89.7198 74.903 89.3933 75.2368C89.0668 75.5707 88.6239 75.7583 88.1622 75.7583H88.1429Z" fill="#00C4D1"/>
<path d="M16.5779 15.2308C16.117 15.2282 15.6756 15.0398 15.3496 14.7065C15.0237 14.3732 14.8395 13.9219 14.8369 13.4506C14.8395 10.1464 16.1243 6.97823 18.4092 4.64181C20.6942 2.30538 23.7925 0.991633 27.0239 0.989014H38.1663C38.628 0.989014 39.0709 1.17657 39.3974 1.51043C39.7239 1.84428 39.9073 2.29709 39.9073 2.76923C39.9073 3.24138 39.7239 3.69418 39.3974 4.02804C39.0709 4.36189 38.628 4.54945 38.1663 4.54945H27.0239C24.7152 4.54945 22.501 5.48725 20.8685 7.15653C19.236 8.82581 18.3189 11.0898 18.3189 13.4506C18.3164 13.9219 18.1321 14.3732 17.8062 14.7065C17.4802 15.0398 17.0389 15.2282 16.5779 15.2308Z" fill="#9D3BFF"/>
<path d="M38.1668 23.7363C36.5829 23.7363 35.0345 23.256 33.7175 22.3562C32.4005 21.4564 31.374 20.1774 30.7678 18.6811C30.1617 17.1847 30.0031 15.5382 30.3121 13.9497C30.6211 12.3612 31.3838 10.902 32.5039 9.75676C33.6239 8.6115 35.0509 7.83157 36.6044 7.5156C38.1579 7.19962 39.7682 7.36179 41.2316 7.9816C42.6949 8.60141 43.9457 9.65101 44.8257 10.9977C45.7057 12.3444 46.1754 13.9276 46.1754 15.5473C46.1754 16.6227 45.9683 17.6875 45.5658 18.6811C45.1633 19.6746 44.5734 20.5773 43.8297 21.3378C43.0861 22.0982 42.2032 22.7014 41.2316 23.1129C40.2599 23.5245 39.2185 23.7363 38.1668 23.7363ZM38.1668 10.8791C37.2715 10.8791 36.3964 11.1506 35.652 11.6592C34.9076 12.1678 34.3274 12.8907 33.9848 13.7364C33.6422 14.5822 33.5525 15.5128 33.7272 16.4107C33.9018 17.3085 34.333 18.1333 34.966 18.7806C35.5991 19.4279 36.4056 19.8687 37.2837 20.0473C38.1618 20.2259 39.0719 20.1343 39.8991 19.7839C40.7262 19.4336 41.4331 18.8404 41.9305 18.0792C42.4279 17.318 42.6934 16.4231 42.6934 15.5077C42.6706 14.2947 42.184 13.1391 41.3378 12.2887C40.4916 11.4382 39.3533 10.9606 38.1668 10.9583V10.8791Z" fill="#00C4D1"/>
<path d="M24.9348 61.5165H22.1492C21.6875 61.5165 21.2446 61.3289 20.9181 60.9951C20.5916 60.6612 20.4082 60.2084 20.4082 59.7363C20.4082 59.2641 20.5916 58.8113 20.9181 58.4775C21.2446 58.1436 21.6875 57.9561 22.1492 57.9561H24.9348C25.3965 57.9561 25.8394 58.1436 26.1659 58.4775C26.4924 58.8113 26.6758 59.2641 26.6758 59.7363C26.6758 60.2084 26.4924 60.6612 26.1659 60.9951C25.8394 61.3289 25.3965 61.5165 24.9348 61.5165Z" fill="#00C4D1"/>
<path d="M24.9348 54.3956H22.1492C21.6875 54.3956 21.2446 54.2081 20.9181 53.8742C20.5916 53.5403 20.4082 53.0875 20.4082 52.6154C20.4082 52.1432 20.5916 51.6904 20.9181 51.3566C21.2446 51.0227 21.6875 50.8352 22.1492 50.8352H24.9348C25.3965 50.8352 25.8394 51.0227 26.1659 51.3566C26.4924 51.6904 26.6758 52.1432 26.6758 52.6154C26.6758 53.0875 26.4924 53.5403 26.1659 53.8742C25.8394 54.2081 25.3965 54.3956 24.9348 54.3956Z" fill="#00C4D1"/>
<path d="M24.9348 47.2747H22.1492C21.6875 47.2747 21.2446 47.0872 20.9181 46.7533C20.5916 46.4195 20.4082 45.9667 20.4082 45.4945C20.4082 45.0224 20.5916 44.5696 20.9181 44.2357C21.2446 43.9019 21.6875 43.7143 22.1492 43.7143H24.9348C25.3965 43.7143 25.8394 43.9019 26.1659 44.2357C26.4924 44.5696 26.6758 45.0224 26.6758 45.4945C26.6758 45.9667 26.4924 46.4195 26.1659 46.7533C25.8394 47.0872 25.3965 47.2747 24.9348 47.2747Z" fill="#00C4D1"/>
</g>
<defs>
<clipPath id="clip0">
<rect width="90" height="90" fill="white"/>
</clipPath>
</defs>
</svg>

<svg xmlns="http://www.w3.org/2000/svg" xmlns:xlink="http://www.w3.org/1999/xlink" width="90" height="90" fill="none" xmlns:v="https://vecta.io/nano"><g clip-path="url(#A)"><path d="M8.453 86.786c1.154 0 2.09-.956 2.09-2.136s-.935-2.136-2.09-2.136-2.09.956-2.09 2.136.935 2.136 2.09 2.136z" fill="#9d3bff"/><path d="M4.372 79.477c1.923 0 3.482-1.594 3.482-3.56s-1.56-3.56-3.482-3.56S.9 73.95.9 75.917s1.56 3.56 3.482 3.56z" fill="#00c4d1"/><path d="M74.61 22.846c2.853 0 5.165-2.364 5.165-5.28s-2.312-5.28-5.165-5.28-5.165 2.364-5.165 5.28 2.312 5.28 5.165 5.28z" fill="#9d3bff"/><g fill="#00c4d1"><path d="M64.33 13.243c1.426 0 2.582-1.182 2.582-2.64s-1.156-2.64-2.582-2.64-2.582 1.182-2.582 2.64 1.156 2.64 2.582 2.64zM88.308 90H23.33a1.7 1.7 0 0 1-1-.332 1.78 1.78 0 0 1-.63-.86 1.82 1.82 0 0 1-.031-1.075c.098-.353.3-.667.58-.897l64.8-53.406a1.72 1.72 0 0 1 .887-.384 1.7 1.7 0 0 1 .95.157c.3.15.533.38.703.662a1.84 1.84 0 0 1 .264.94l.222 53.407a1.84 1.84 0 0 1-.503 1.266 1.75 1.75 0 0 1-.582.394 1.56 1.56 0 0 1-.686.13zm-60.045-3.56h58.294l-.203-47.868-58.1 47.868z"/></g><path d="M79.254 80.03h-26.53c-.356.002-.704-.107-.997-.313s-.518-.5-.643-.84a1.82 1.82 0 0 1-.058-1.065c.087-.353.278-.67.547-.908l26.444-23.5c.252-.225.563-.372.894-.422s.67-.002.975.138a1.76 1.76 0 0 1 .748.655 1.82 1.82 0 0 1 .284.964l.087 23.5a1.84 1.84 0 0 1-.503 1.266 1.75 1.75 0 0 1-.573.39 1.72 1.72 0 0 1-.675.134zm-21.88-3.56h20.128l-.068-17.802-20.06 17.802z" fill="#9d3bff"/><path d="M24.936 69.35h-6.964a1.73 1.73 0 0 1-1.228-.524 1.81 1.81 0 0 1-.513-1.256V35.525a1.81 1.81 0 0 1 .513-1.256 1.73 1.73 0 0 1 1.228-.524h6.964a1.73 1.73 0 0 1 1.228.524 1.81 1.81 0 0 1 .513 1.256V67.57a1.81 1.81 0 0 1-.513 1.256 1.73 1.73 0 0 1-1.228.524zm-5.223-3.56h3.5V37.306h-3.482l-.02 28.484z" fill="#00c4d1"/><g fill="#9d3bff"><path d="M38.166 37.306H16.578a1.73 1.73 0 0 1-1.228-.524 1.81 1.81 0 0 1-.513-1.256V13.45a1.81 1.81 0 0 1 .513-1.256 1.73 1.73 0 0 1 1.228-.524H23.9c.815-2.623 2.306-4.973 4.316-6.803a14.84 14.84 0 0 1 7.11-3.595 14.66 14.66 0 0 1 7.907.623A14.98 14.98 0 0 1 49.72 6.56c1.713 2.123 2.834 4.68 3.247 7.4a15.63 15.63 0 0 1-.905 8.057C51.058 24.57 49.4 26.8 47.26 28.47s-4.68 2.72-7.352 3.04v4.015a1.81 1.81 0 0 1-.513 1.256 1.73 1.73 0 0 1-1.228.524zm-19.847-3.56h18.106V29.8a1.81 1.81 0 0 1 .513-1.256 1.73 1.73 0 0 1 1.228-.524 11.31 11.31 0 0 0 6.14-1.807c1.84-1.184 3.3-2.876 4.246-4.88s1.297-4.24 1.042-6.445-1.117-4.292-2.485-6.017a11.48 11.48 0 0 0-5.244-3.73 11.25 11.25 0 0 0-6.382-.29 11.43 11.43 0 0 0-5.547 3.24 11.84 11.84 0 0 0-2.998 5.768c-.084.398-.3.754-.6 1s-.696.395-1.094.395H18.32v18.494zm12.187 40.588H17.932a1.73 1.73 0 0 1-1.228-.524 1.81 1.81 0 0 1-.513-1.256V67.6a1.81 1.81 0 0 1 .513-1.256 1.73 1.73 0 0 1 1.228-.524h12.574a1.73 1.73 0 0 1 1.228.524 1.81 1.81 0 0 1 .513 1.256v4.945a1.81 1.81 0 0 1-.513 1.256 1.73 1.73 0 0 1-1.228.524zm-10.794-3.56h9.053V69.35h-9.053v1.424z"/></g><g fill="#00c4d1"><use xlink:href="#B"/><path d="M88.143 63.653h-3.995a1.72 1.72 0 0 1-1.231-.521 1.8 1.8 0 0 1 0-2.518 1.72 1.72 0 0 1 1.231-.521h4.014a1.72 1.72 0 0 1 1.231.521 1.8 1.8 0 0 1 0 2.518 1.72 1.72 0 0 1-1.231.521h-.02zm0 12.105h-3.995a1.72 1.72 0 0 1-1.231-.522 1.8 1.8 0 0 1 0-2.518 1.72 1.72 0 0 1 1.231-.521h4.014a1.72 1.72 0 0 1 1.231.521 1.8 1.8 0 0 1 0 2.518 1.72 1.72 0 0 1-1.231.522h-.02z"/></g><path d="M16.578 15.23a1.73 1.73 0 0 1-1.228-.524 1.81 1.81 0 0 1-.513-1.256c.003-3.304 1.287-6.472 3.572-8.81S23.793.992 27.024.99h11.142a1.72 1.72 0 0 1 1.231.521 1.8 1.8 0 0 1 .51 1.259 1.8 1.8 0 0 1-.51 1.259 1.72 1.72 0 0 1-1.231.521H27.024c-2.31 0-4.523.938-6.155 2.607s-2.55 3.933-2.55 6.294a1.81 1.81 0 0 1-.513 1.256 1.73 1.73 0 0 1-1.228.524z" fill="#9d3bff"/><g fill="#00c4d1"><path d="M38.167 23.736c-1.584 0-3.132-.48-4.45-1.38s-2.344-2.18-2.95-3.675a8.36 8.36 0 0 1-.456-4.731c.31-1.588 1.072-3.048 2.192-4.193s2.547-1.925 4.1-2.24 3.164-.154 4.627.466a8.05 8.05 0 0 1 3.594 3.016 8.32 8.32 0 0 1 1.35 4.55 8.35 8.35 0 0 1-.61 3.134c-.403.994-.992 1.896-1.736 2.657a8 8 0 0 1-2.598 1.775c-.972.412-2.013.623-3.065.623zm0-12.857c-.895 0-1.77.272-2.515.78a4.61 4.61 0 0 0-1.667 2.077c-.343.846-.432 1.776-.258 2.674a4.66 4.66 0 0 0 1.239 2.37c.633.647 1.44 1.088 2.318 1.267s1.788.087 2.615-.263a4.55 4.55 0 0 0 2.031-1.705c.497-.76.763-1.656.763-2.572a4.69 4.69 0 0 0-1.356-3.219c-.846-.85-1.985-1.328-3.17-1.33v-.08z"/><use xlink:href="#C"/><path d="M24.935 54.396H22.15a1.72 1.72 0 0 1-1.231-.521 1.8 1.8 0 0 1 0-2.518 1.72 1.72 0 0 1 1.231-.521h2.786a1.72 1.72 0 0 1 1.231.521 1.8 1.8 0 0 1 0 2.518 1.72 1.72 0 0 1-1.231.521zm0-7.12H22.15a1.72 1.72 0 0 1-1.231-.521 1.8 1.8 0 0 1 0-2.518 1.72 1.72 0 0 1 1.231-.521h2.786a1.72 1.72 0 0 1 1.231.521 1.8 1.8 0 0 1 0 2.518 1.72 1.72 0 0 1-1.231.521z"/></g></g><defs><clipPath id="A"><path fill="#fff" d="M0 0h90v90H0z"/></clipPath><path id="B" d="M88.143 51.547h-3.995a1.72 1.72 0 0 1-1.231-.522 1.8 1.8 0 0 1 0-2.518 1.72 1.72 0 0 1 1.231-.521h4.014a1.72 1.72 0 0 1 1.231.521 1.8 1.8 0 0 1 0 2.518 1.72 1.72 0 0 1-1.231.522h-.02z"/><path id="C" d="M24.935 61.517H22.15a1.72 1.72 0 0 1-1.231-.521 1.8 1.8 0 0 1 0-2.518 1.72 1.72 0 0 1 1.231-.521h2.786a1.72 1.72 0 0 1 1.231.521 1.8 1.8 0 0 1 0 2.518 1.72 1.72 0 0 1-1.231.521z"/></defs></svg>
